images/basketball.svg

<?xml version="1.0" encoding="UTF-8" standalone="no"?>
<svg xml:space="preserve" width="16.015985" height="15.999969" version="1.1" id="svg2" sodipodi:docname="basketball.svg" inkscape:version="1.4.2 (ebf0e940d0, 2025-05-08)" xmlns:inkscape="http://www.inkscape.org/namespaces/inkscape" xmlns:sodipodi="http://sodipodi.sourceforge.net/DTD/sodipodi-0.dtd" xmlns="http://www.w3.org/2000/svg" xmlns:svg="http://www.w3.org/2000/svg"><defs id="defs2" /><sodipodi:namedview id="namedview2" pagecolor="#ffffff" bordercolor="#666666" borderopacity="1.0" inkscape:showpageshadow="2" inkscape:pageopacity="0.0" inkscape:pagecheckerboard="true" inkscape:deskcolor="#d1d1d1" showgrid="true" inkscape:zoom="64.875" inkscape:cx="8" inkscape:cy="8" inkscape:window-width="2154" inkscape:window-height="1206" inkscape:window-x="0" inkscape:window-y="0" inkscape:window-maximized="1" inkscape:current-layer="svg2"><inkscape:grid id="grid2" units="px" originx="0" originy="0" spacingx="1" spacingy="1" empcolor="#0000ff" empopacity="0.25098039" color="#0000ff" opacity="0.1254902" empspacing="5" enabled="true" visible="true" /></sodipodi:namedview>
  
  <path style="fill:#000000;fill-opacity:1;stroke:#ffffff;stroke-width:3;stroke-linecap:round;stroke-linejoin:round;stroke-miterlimit:4;stroke-dasharray:none;stroke-opacity:0.5;paint-order:stroke fill markers" d="M 7.338,1.4999843 C 5.738,1.6599843 4.319,2.3999843 3.279,3.4979843 C 4.399,4.4379843 5.179,5.7999843 5.339,7.3379843 H 7.338 Z M 8.66,1.4999843 V 7.3379843 H 10.658 C 10.818,5.7979843 11.6,4.4379843 12.718,3.4979843 A 6.519,6.519 0 0 0 8.66,1.4999843 Z M 13.52,4.5179843 A 4.614,4.614 0 0 0 11.979,7.3379843 H 14.498 A 6.26,6.26 0 0 0 13.52,4.5179843 Z M 2.479,4.5199843 C 1.959,5.3599843 1.599,6.2969843 1.5,7.3369843 H 4.02 A 4.597,4.597 0 0 0 2.479,4.5199843 Z M 1.5,8.6609843 C 1.6,9.7009843 1.94,10.640984 2.479,11.480984 A 4.586,4.586 0 0 0 4.04,8.6599843 H 1.5 Z M 5.34,8.6609843 C 5.18,10.200984 4.398,11.558984 3.28,12.499984 A 6.492,6.492 0 0 0 7.34,14.497984 V 8.6599843 H 5.34 Z M 8.66,8.6609843 V 14.499984 C 10.26,14.339984 11.68,13.599984 12.72,12.501984 C 11.6,11.558984 10.818,10.197984 10.658,8.6599843 H 8.66 Z M 11.979,8.6609843 A 4.491,4.491 0 0 0 13.537,11.480984 C 14.056,10.640984 14.417,9.7009843 14.516,8.6609843 Z" id="path2" />
</svg>

<svg xml:space="preserve" width="16" height="16" xmlns="http://www.w3.org/2000/svg">
  <path style="fill:none;fill-opacity:.5;stroke:#fff;stroke-width:3;stroke-linecap:round;stroke-linejoin:round;stroke-miterlimit:4;stroke-dasharray:none;stroke-opacity:.5;paint-order:stroke fill markers" d="M7.338 1.5c-1.6.16-3.019.9-4.059 1.998 1.12.94 1.9 2.302 2.06 3.84h1.999V1.5zm1.322 0v5.838h1.998c.16-1.54.942-2.9 2.06-3.84A6.519 6.519 0 0 0 8.66 1.5zm4.86 3.018a4.614 4.614 0 0 0-1.541 2.82h2.519a6.26 6.26 0 0 0-.978-2.82zM2.479 4.52c-.52.84-.88 1.777-.979 2.817h2.52A4.597 4.597 0 0 0 2.479 4.52zM1.5 8.661c.1 1.04.44 1.98.979 2.82A4.586 4.586 0 0 0 4.04 8.66H1.5zm3.84 0c-.16 1.54-.942 2.898-2.06 3.839a6.492 6.492 0 0 0 4.06 1.998V8.66h-2zm3.32 0V14.5c1.6-.16 3.02-.9 4.06-1.998-1.12-.943-1.902-2.304-2.062-3.842H8.66zm3.319 0a4.491 4.491 0 0 0 1.558 2.82c.519-.84.88-1.78.979-2.82h-2.537z" />
  <path style="fill:#000;fill-opacity:1;stroke:none;stroke-width:3;stroke-linecap:round;stroke-linejoin:round;stroke-miterlimit:4;stroke-dasharray:none;stroke-opacity:.5;paint-order:stroke fill markers" d="M7.338 1.5c-1.6.16-3.019.9-4.059 1.998 1.12.94 1.9 2.302 2.06 3.84h1.999V1.5zm1.322 0v5.838h1.998c.16-1.54.942-2.9 2.06-3.84A6.519 6.519 0 0 0 8.66 1.5zm4.86 3.018a4.614 4.614 0 0 0-1.541 2.82h2.519a6.26 6.26 0 0 0-.978-2.82zM2.479 4.52c-.52.84-.88 1.777-.979 2.817h2.52A4.597 4.597 0 0 0 2.479 4.52zM1.5 8.661c.1 1.04.44 1.98.979 2.82A4.586 4.586 0 0 0 4.04 8.66H1.5zm3.84 0c-.16 1.54-.942 2.898-2.06 3.839a6.492 6.492 0 0 0 4.06 1.998V8.66h-2zm3.32 0V14.5c1.6-.16 3.02-.9 4.06-1.998-1.12-.943-1.902-2.304-2.062-3.842H8.66zm3.319 0a4.491 4.491 0 0 0 1.558 2.82c.519-.84.88-1.78.979-2.82h-2.537z" />
</svg>
